X:39
T:Manchester
Z: id:dc-hornpipe-35
M:C|
L:1/8
K:D Major
(3ABc|dcdA FAdf|edcB A2g2|fgaf bagf|edcB Agfe|!
dcdA FAdf|edcB A2g2|fgaf bgec|d2dc d2:|!
fg|afaf d2ga|bgbg e2fg|afaf bagf|edcB Agfe|!
dcdA FAdf|edcB A2g2|fgaf bgec|d2dc d2:|!

